X: 33778
T: Raven's Rock, The
R: waltz
M: 3/4
K: Dmajor
de|B2AFAB|~F2EDDB|~A2FBAB|defedc|
B2AFAd|~F2EDDF|~E2DBAF|D4:|
Ad|:~B2BAdf|~e2dfe2|dBBAdf|efabf2|
[1 dBBAdf|~e2dfed|B2BAB/c/d|F2EDFA:|
[2 abfef2|e2edBA|~F2FEFA|D4|

